!!!COM:	Du Fay, Guillaume
!!!CDT:	~1397/08/05/-1474/11/27
!!!OPR:	Missa Se la face ay pale
!!!ONM:	1
!!!OTL:	Kyrie
!!!AGN:	Mass; Kyrie
!!!SCT:	Duf1005a
!!!SCA:	Duf1005a
!!!voices:	4
!!!voices-OPR:	4
!!midi-transpose: -2
**kern	**text	**kern	**text	**kern	**text	**kern	**text
*staff4	*staff4	*staff3	*staff3	*staff2	*staff2	*staff1	*staff1
*Ivox	*	*Ivox	*	*Ivox	*	*Ivox	*
*I"Bassus	*	*I"Tenor	*	*I"Contratenor	*	*I"Cantus	*
*I'B	*	*I'T	*	*I'Ct	*	*I'Cn	*
*>[A,B,C]	*>[A,B,C]	*>[A,B,C]	*>[A,B,C]	*>[A,B,C]	*>[A,B,C]	*>[A,B,C]	*>[A,B,C]
*>A	*>A	*>A	*>A	*>A	*>A	*>A	*>A
*clefF4	*	*clefGv2	*	*clefGv2	*	*clefG2	*
*k[]	*	*k[]	*	*k[]	*	*k[]	*
*M3/1	*	*M3/1	*	*M3/1	*	*M3/1	*
*met(O)	*	*met(O)	*	*met(O)	*	*met(O)	*
*MM384	*MM384	*MM384	*MM384	*MM384	*MM384	*MM384	*MM384
!!section: Kyrie I
!!!OMD: Kyrie I
!!comment: for this mass, tempo should be 100 to the semibreve in all sections.
=1-	=1-	=1-	=1-	=1-	=1-	=1-	=1-
[0.C	Ky-	[0.c	Ky-	0.c	Ky-	1.cc	Ky-
.	.	.	.	.	.	2b\	.
.	.	.	.	.	.	2a/	.
.	.	.	.	.	.	2g/	.
=2	=2	=2	=2	=2	=2	=2	=2
0.C]	.	1c]	.	0e	.	1g	.
.	.	0c	-ri-	.	.	2a/	.
.	.	.	.	.	.	2g/	.
.	.	.	.	1g	-ri-	1e	-ri-
=3	=3	=3	=3	=3	=3	=3	=3
0G	.	[0.B	-e	1.g	-e	1d	-e
.	.	.	x	.	.	1r	.
.	.	.	.	2f\	.	.	.
1G	-ri-	.	.	1d	.	[1g	e-
=4	=4	=4	=4	=4	=4	=4	=4
1E	-e	1B]	.	1e	e-	1g]	.
1.F	e-	0A	e-	1c	.	2a/	-lei-
.	.	.	.	.	.	2b\	.
.	.	.	.	[1f	-lei-	[1cc	.
2G\	.	.	.	.	.	.	.
=5	=5	=5	=5	=5	=5	=5	=5
1A	.	1c	-lei-	2f\]	.	2cc\]	.
.	.	.	.	2e\	.	2a/	.
1G	.	1d	.	0g	.	1b	.
[1c	-lei-	[1e	.	.	.	1g	.
=6	=6	=6	=6	=6	=6	=6	=6
1c]	.	1e]	.	1g	-son,	1.cc	.
0d	.	0f	.	1r	.	.	.
.	.	.	.	.	.	2b\	.
.	.	.	.	1r	.	2b\	.
.	.	.	.	.	.	2a/	.
=7	=7	=7	=7	=7	=7	=7	=7
0c	-son,	0e	-son,	0.g	Ky-	1cc	-son,
.	.	.	.	.	.	1r	.
1G	.	[1d	.	.	.	1b	Ky-
.	.	.	x	.	.	.	.
=8	=8	=8	=8	=8	=8	=8	=8
1r	.	0.d]	.	0f#	-ri-	2a/	.
.	.	.	.	.	.	1dd	.
1r	.	.	.	.	.	.	.
.	.	.	.	.	.	2cc\	.
1G	Ky-	.	.	1g	.	2.b\	-ri-
.	.	.	.	.	.	4a/	.
=9	=9	=9	=9	=9	=9	=9	=9
1.C	.	0c	e-	0e	-e	1cc	-e
.	.	.	.	.	.	1g	.
2D\	-ri-	.	.	.	.	.	.
1E	-e	1G	.	1e	e-	2r	.
.	.	.	.	.	.	2g/	e-
=10	=10	=10	=10	=10	=10	=10	=10
1F	e-	0A	-lei-	1c	-lei-	2f/	-lei-
.	.	.	.	.	.	1a	.
0D	-lei-	.	.	0d	.	.	.
.	.	.	.	.	.	2g/	.
.	.	1B	.	.	.	1f	.
=11	=11	=11	=11	=11	=11	=11	=11
1C	-son,	[0.c	-son,	1G	-son,	1e	-son,
1F	e-	.	x	1A	.	1f	.
2E\	-lei-	.	.	1G	.	1g	.
2C/	.	.	.	.	.	.	.
=12	=12	=12	=12	=12	=12	=12	=12
0C	.	1c]	.	2r	.	2.cc\	e-
.	.	.	.	2g\	e-	.	.
.	.	.	.	.	.	4b\	.
.	.	0r	.	2e\	.	2g/	.
.	.	.	.	2c\	.	2a/	.
1BB	.	.	.	1d	-lei-	4b\	-lei-
.	.	.	.	.	.	4a/	.
.	.	.	.	.	.	4g/	.
.	.	.	.	.	.	4f/	.
=13	=13	=13	=13	=13	=13	=13	=13
0.C	-son,	[0.g	Ky-	0.c	-son,	1e	-son,
.	.	.	.	.	.	1r	.
.	.	.	.	.	.	1r	.
=14	=14	=14	=14	=14	=14	=14	=14
*	*	*	*	*	*	*^	*
0.r	.	1g]	.	0.G	.	0d\	0b/	Ky-
.	.	0g	-ri-	.	.	.	.	.
*	*	*	*	*	*	*v	*v	*
.	.	.	.	.	.	1g	.
=15	=15	=15	=15	=15	=15	=15	=15
1.F	Ky-	[0.c	-e	0.r	.	1.a	.
2G\	.	.	x	.	.	2b\	.
1A	.	.	.	.	.	1cc	.
=16	=16	=16	=16	=16	=16	=16	=16
1F	-ri-	1c]	.	1r	.	1a	-ri-
1G	-e	0B	e-	1d	Ky-	0g	-e
1E	.	.	.	1e	-ri-	.	.
=17	=17	=17	=17	=17	=17	=17	=17
1A	e-	1c	-lei-	1f	-e	1cc	e-
0G	.	1d	.	0g	e-	1.b	.
.	.	1e	.	.	.	.	.
.	.	.	.	.	.	2a/	.
=18	=18	=18	=18	=18	=18	=18	=18
0F	-lei-	1f	.	1c	-lei-	0a	-lei-
.	.	0d	.	1A	.	.	.
1G	.	.	.	2.B\	.	1g	.
.	.	.	.	4G/	.	.	.
=19	=19	=19	=19	=19	=19	=19	=19
!!note: Tenor part split into two tied notes for line break in performance score.
1.C	-son,	[0.c	-son,	1G	-son,	2.e/	.
.	.	.	.	.	.	4f/	.
.	.	.	.	1r	.	2g/	.
1F	e-	.	.	.	.	1a	.
.	.	.	.	1r	.	.	.
2G\	.	.	.	.	.	2g/	.
=20	=20	=20	=20	=20	=20	=20	=20
1A	.	1c]	.	2r	.	2f/	.
.	.	.	.	2c\	e-	2.e/	.
2G\	-lei-	1r	.	2B\	-lei-	.	.
.	.	.	.	.	.	4d/	.
2F\	.	.	.	1A	.	1d	.
1E	.	1r	.	.	.	.	.
.	.	.	.	2G/	.	2c#i/	.
=21	=21	=21	=21	=21	=21	=21	=21
0.D	-son,	0a	Ky-	0A	-son	0.d	-son,
.	.	1a	-ri-	2d\	Ky-	.	.
.	.	.	.	2e\	.	.	.
=22	=22	=22	=22	=22	=22	=22	=22
0.d	Ky-	0a	-e	0f	.	0.r	.
.	.	1a	.	1f	-ri-	.	.
=23	=23	=23	=23	=23	=23	=23	=23
0.G	.	[0.g	.	0d	-e,	0.r	.
.	.	.	.	1e	.	.	.
=24	=24	=24	=24	=24	=24	=24	=24
1c	.	1g]	.	1e	Ky-	1r	.
2B\	.	1r	.	2d\	.	1dd	Ky-
2G\	.	.	.	1g	.	.	.
1A	-ri-	1c	e-	.	.	1cc	-ri-
.	.	.	.	2f#i\	-ri-	.	.
=25	=25	=25	=25	=25	=25	=25	=25
0G	-e	1d	-lei-	0g	-e	0b	-e
.	.	1e	.	.	.	.	.
1F	e-	[1f	.	1c	e-	1a	e-
=26	=26	=26	=26	=26	=26	=26	=26
0D	-lei-	1f]	.	2d\	-lei-	1.a	-lei-
.	.	.	.	2c\	.	.	.
.	.	0d	.	0A	-son,	.	.
.	.	.	.	.	.	2g/	.
2F\	.	.	.	.	.	1f	.
2G\	.	.	.	.	.	.	.
=27	=27	=27	=27	=27	=27	=27	=27
0.A	-son,	0c	-son,	1r	.	1e	-son,
.	.	.	.	1.f	e-	2a/	e-
.	.	.	.	.	.	2b\	.
.	.	1r	.	.	.	1cc	.
.	.	.	.	2e\	.	.	.
=28	=28	=28	=28	=28	=28	=28	=28
0.G	.	1r	.	0.g	-lei-	2b\	-lei-
.	.	.	.	.	.	1dd	.
.	.	0d	e-	.	.	.	.
.	.	.	.	.	.	2cc\	.
.	.	.	.	.	.	1b	.
=29	=29	=29	=29	=29	=29	=29	=29
0A	Ky-	0c	-lei-	0e	-son,	1a	-son,
.	.	.	.	.	.	1r	.
[1B	-ri-	1G	-son,	1d	Ky-	[1dd	Ky-
=30	=30	=30	=30	=30	=30	=30	=30
1B]	.	1r	.	2g\	.	1dd]	.
.	.	.	.	2f\	.	.	.
0c	-e	1g	Ky-	1.e	-ri-	1ee	-ri-
.	.	1g	-ri-	.	.	1cc	.
.	.	.	.	2d\	.	.	.
=31	=31	=31	=31	=31	=31	=31	=31
0G	.	1g	-e-	0d	-e	2b\	-e
.	.	.	.	.	.	2cc\	.
.	.	1g	-lei-	.	.	1dd	e-
1A	e-	[1c	-son,	1r	.	2cc\	-lei-
.	.	.	x	.	.	2a/	.
=32	=32	=32	=32	=32	=32	=32	=32
1F	-lei-	1c]	.	1r	.	1a	.
0B-	.	1r	.	0G	e-	2g/	.
.	.	.	.	.	.	1g	.
.	.	1d	e-	.	.	.	.
.	.	.	.	.	.	2f/	.
=33	=33	=33	=33	=33	=33	=33	=33
1A	-son,	0c	-lei-	1e	-lei-	1a	-son,
1F	.	.	.	1f	.	1r	.
1G	.	[1B-	.	[1d	-son,	[1g	Ky-
=34	=34	=34	=34	=34	=34	=34	=34
1r	.	1B-]	.	1d]	.	1g]	.
1D	Ky-	0A	.	1d	Ky-	2f/	-ri-
.	.	.	.	.	.	2g/	.
1F	.	.	.	2c\	-ri-	1a	-e
.	.	.	.	2d\	.	.	.
=35	=35	=35	=35	=35	=35	=35	=35
1E	-ri-	0G	-son,	0.e	-e	1b	e-
0C	-e	.	.	.	.	2.cc\	-lei-
.	.	.	.	.	.	4b\	.
.	.	1r	.	.	.	1g	.
=36	=36	=36	=36	=36	=36	=36	=36
1c	e-	0.r	.	1e	e-	2a/	.
.	.	.	.	.	.	2.g/	.
2A\	-lei-	.	.	2c\	.	.	.
.	.	.	.	.	.	4f/	.
2F\	.	.	.	1c	-lei-	1f	.
1G	.	.	.	.	.	.	.
.	.	.	.	2B\	.	2e/	.
=37	=37	=37	=37	=37	=37	=37	=37
0.Fl	-son.	1.A	...son.	0.cl	-son.	0.fl	-son.
.	.	2B\	.	.	.	.	.
.	.	1cl	.	.	.	.	.
!!LO:LB:i:g=z
=38||	=38||	=38||	=38||	=38||	=38||	=38||	=38||
*>B	*>B	*>B	*>B	*>B	*>B	*>B	*>B
*clefF4	*	*clefGv2	*	*clefGv2	*	*clefG2	*
*k[]	*	*k[]	*	*k[]	*	*k[]	*
*M2/1	*	*M2/1	*	*M2/1	*	*M2/1	*
*met(C)	*	*met(C)	*	*met(C)	*	*met(C)	*
*MM420	*MM420	*MM420	*MM420	*MM420	*MM420	*MM420	*MM420
!!section: Christe
!!!OMD: Christe
0r	.	0r	.	0f	Chri-	1.cc	Chri-
.	.	.	.	.	.	2b\	.
=39.	=39	=39.	=39	=39.	=39	=39.	=39
0r	.	0r	.	1f	-ste	1a	-ste
.	.	.	.	1e	.	[1g	.
=40.	=40	=40.	=40	=40.	=40	=40.	=40
0r	.	0r	.	0c	.	1g]	.
.	.	.	.	.	.	[1cc	e-
=41	=41	=41	=41	=41	=41	=41	=41
0r	.	0r	.	0e	e-	2cc\]	.
.	.	.	.	.	.	2b\	.
.	.	.	.	.	.	1cc	.
=42.	=42	=42.	=42	=42.	=42	=42.	=42
0r	.	0r	.	1f	-lei-	1dd	-lei-
.	.	.	.	1g	.	[1ee	.
=43.	=43	=43.	=43	=43.	=43	=43.	=43
0r	.	0r	.	0c	.	2ee\]	.
.	.	.	.	.	.	2dd\	.
.	.	.	.	.	.	1cc	.
=44	=44	=44	=44	=44	=44	=44	=44
0r	.	0r	.	1G	.	1b	.
.	.	.	.	2A/	.	2cc\	.
.	.	.	.	[2B\	.	[2dd\	.
=45.	=45	=45.	=45	=45.	=45	=45.	=45
0r	.	0r	.	2B\]	.	2dd\]	.
.	.	.	.	2A/	.	1ee	.
.	.	.	.	2c\	.	.	.
.	.	.	.	2e\	.	2cc\	.
=46.	=46	=46.	=46	=46.	=46	=46.	=46
0r	.	0r	.	0d	.	2dd\	.
.	.	.	.	.	.	2a/	.
.	.	.	.	.	.	2.b\	.
.	.	.	.	.	.	4a/	.
=47	=47	=47	=47	=47	=47	=47	=47
0r	.	0r	.	0c	-son,	0cc	-son,
=48.	=48	=48.	=48	=48.	=48	=48.	=48
0F	Chri-	0r	.	1r	.	0r	.
.	.	.	.	1f	Chri-	.	.
=49.	=49	=49.	=49	=49.	=49	=49.	=49
1A	-ste	0r	.	2e\	-ste	0r	.
.	.	.	.	2c\	.	.	.
1B	.	.	.	1d	.	.	.
=50	=50	=50	=50	=50	=50	=50	=50
1.c	.	0r	.	2e\	.	0r	.
.	.	.	.	2f\	.	.	.
.	.	.	.	1g	.	.	.
2B\	.	.	.	.	.	.	.
=51.	=51	=51.	=51	=51.	=51	=51.	=51
2c\	.	0r	.	2e\	.	0r	.
1d	.	.	.	2f\	.	.	.
.	.	.	.	1d	.	.	.
2B\	.	.	.	.	.	.	.
=52.	=52	=52.	=52	=52.	=52	=52.	=52
2c\	.	0r	.	2c\	.	0r	.
2A\	.	.	.	1f	.	.	.
1G	.	.	.	.	.	.	.
.	.	.	.	2e\	.	.	.
=53	=53	=53	=53	=53	=53	=53	=53
[0F	e-	0r	.	2f\	.	0r	.
.	.	.	.	2g\	.	.	.
.	.	.	.	[1a	.	.	.
=54.	=54	=54.	=54	=54.	=54	=54.	=54
1F]	.	0r	.	2a\]	.	0r	.
.	.	.	.	2f\	.	.	.
1E	.	.	.	1g	e-	.	.
=55.	=55	=55.	=55	=55.	=55	=55.	=55
0F	-lei-	0r	.	2.f\	-lei-	0r	.
.	.	.	.	4e\	.	.	.
.	.	.	.	2d\	.	.	.
.	.	.	.	[2c\	.	.	.
=56	=56	=56	=56	=56	=56	=56	=56
1C	.	0r	.	4c\]	.	0r	.
.	.	.	.	4B\	.	.	.
.	.	.	.	4A/	.	.	.
.	.	.	.	4G/	.	.	.
1E	.	.	.	2G/	.	.	.
.	.	.	.	2c\	.	.	.
=57.	=57	=57.	=57	=57.	=57	=57.	=57
0D	.	0r	.	2d\	.	0r	.
.	.	.	.	2A/	.	.	.
.	.	.	.	2.B\	.	.	.
.	.	.	.	4A/	.	.	.
=58.	=58	=58.	=58	=58.	=58	=58.	=58
0C	-son,	0r	.	0c	-son,	1r	.
.	.	.	.	.	.	[1g	Chri-
=59	=59	=59	=59	=59	=59	=59	=59
1G	Chri-	0r	.	0r	.	1g]	.
1A	.	.	.	.	.	2e/	.
.	.	.	.	.	.	2f/	.
=60.	=60	=60.	=60	=60.	=60	=60.	=60
1B	-ste	0r	.	0r	.	1d	-ste,
[1c	.	.	.	.	.	1c	.
=61.	=61	=61.	=61	=61.	=61	=61.	=61
1c]	.	0r	.	0r	.	1g	Chri-
1c	e-	.	.	.	.	1a	.
=62	=62	=62	=62	=62	=62	=62	=62
1d	-lei-	0r	.	0r	.	1b	-ste
1c	.	.	.	.	.	[1cc	.
=63.	=63	=63.	=63	=63.	=63	=63.	=63
0A	.	0r	.	0r	.	1cc]	.
.	.	.	.	.	.	1cc	e-
=64.	=64	=64.	=64	=64.	=64	=64.	=64
1G	.	0r	.	0r	.	1dd	-lei-
[1A	.	.	.	.	.	1cc	.
=65	=65	=65	=65	=65	=65	=65	=65
2A\]	.	0r	.	0r	.	0a	-son,
2F\	.	.	.	.	.	.	.
1F	.	.	.	.	.	.	.
=66.	=66	=66.	=66	=66.	=66	=66.	=66
1E	.	0r	.	0r	.	1g	e-
1F	.	.	.	.	.	[1a	-lei-
=67.	=67	=67.	=67	=67.	=67	=67.	=67
0D	.	0r	.	0r	.	2a/]	.
.	.	.	.	.	.	2f/	.
.	.	.	.	.	.	1f	.
=68	=68	=68	=68	=68	=68	=68	=68
1C	-son,	0r	.	0r	.	1e	.
1F	e-	.	.	.	.	2c/	.
.	.	.	.	.	.	2d/	.
=69.	=69	=69.	=69	=69.	=69	=69.	=69
2C/	-lei-	0r	.	0r	.	2e/	.
1D	.	.	.	.	.	2f/	.
.	.	.	.	.	.	2a/	.
2E\	.	.	.	.	.	[2g/	.
=70.	=70	=70.	=70	=70.	=70	=70.	=70
2F\	.	0r	.	0r	.	4g/]	.
.	.	.	.	.	.	4f/	.
2A\	.	.	.	.	.	1f	.
1G	-son,	.	.	.	.	.	.
.	.	.	.	.	.	2e/	.
=71	=71	=71	=71	=71	=71	=71	=71
1F	Chri-	0r	.	1c	Chri-	1f	-son,
2G\	.	.	.	2B\	.	2r	.
[2A\	.	.	.	[2c\	.	2e/	Chri-
=72.	=72	=72.	=72	=72.	=72	=72.	=72
2A\]	.	0r	.	2c\]	.	2f/	.
2B\	.	.	.	2d\	.	2g/	.
1c	.	.	.	1e	.	1a	.
=73.	=73	=73.	=73	=73.	=73	=73.	=73
2d\	.	0r	.	2f\	-ste	2b-\	-ste
2B\	.	.	.	2d\	.	2g/	.
1c	.	.	.	1e	e-	[1a	.
=74	=74	=74	=74	=74	=74	=74	=74
1F	-ste	0r	.	1f	-lei-	1a]	.
[1B-	e-	.	.	[1d	.	[1g	e-
=75.	=75	=75.	=75	=75.	=75	=75.	=75
1B-]	.	0r	.	2d\]	.	2g/]	.
.	.	.	.	2c\	.	2f/	.
1A	-lei-	.	.	1c	.	[1f	-lei-
=76.	=76	=76.	=76	=76.	=76	=76.	=76
0G	.	0r	.	1.B	.	2f/]	.
.	.	.	.	.	.	2e/	.
.	.	.	.	.	.	2e/	.
.	.	.	.	2A/	.	2d/	.
=77	=77	=77	=77	=77	=77	=77	=77
0Fl	-son.	0r	.	0cl	-son.	0fl	-son.
!!LO:LB:i:g=z
=78||	=78||	=78||	=78||	=78||	=78||	=78||	=78||
*>C	*>C	*>C	*>C	*>C	*>C	*>C	*>C
*clefF4	*	*clefGv2	*	*clefGv2	*	*clefG2	*
*k[]	*	*k[]	*	*k[]	*	*k[]	*
*M3/1	*	*M3/1	*	*M3/1	*	*M3/1	*
*met(O)	*	*met(O)	*	*met(O)	*	*met(O)	*
*MM384	*MM384	*MM384	*MM384	*MM384	*MM384	*MM384	*MM384
!!section: Kyrie II
!!!OMD: Kyrie II
1F	Ky-	[0.c	Ky-	1f	Ky-	0cc	Ky-
2E\	.	.	.	2g\	.	.	.
1F	.	.	.	1a	.	.	.
.	.	.	.	.	.	1cc	-ri-
2G\	.	.	.	2g\	.	.	.
=79	=79	=79	=79	=79	=79	=79	=79
1A	.	1c]	.	2e\	.	1a	.
.	.	.	.	2f\	.	.	.
0G	-ri-	0B	-ri-	2g\	.	1.b	-e
.	.	.	.	2d\	.	.	.
.	.	.	.	2.e\	-ri-	.	.
.	.	.	.	.	.	2g/	.
.	.	.	.	4d\	.	.	.
=80	=80	=80	=80	=80	=80	=80	=80
1F	-e	[0.c	-e	1f	-e	1a	e-
1C	e-	.	x	1e	e-	2g/	-lei-
.	.	.	.	.	.	2.cc\	.
1F	.	.	.	1c	.	.	.
.	.	.	.	.	.	4b\	.
.	.	.	.	.	.	2a/	.
=81	=81	=81	=81	=81	=81	=81	=81
1E	-lei-	1c]	.	1G	-lei-	1g	.
0D	.	0d	e-	2A/	.	0f	.
.	.	.	.	1B	.	.	.
.	.	.	.	2A/	.	.	.
=82	=82	=82	=82	=82	=82	=82	=82
0.C	-son,	0e	-lei-	1.c	-son,	0g	-son,
.	.	.	.	2d\	.	.	.
!!note: Tenor part split into two tied notes for line break in performance score.
.	.	[1c	-son,	1e	.	1r	.
=83	=83	=83	=83	=83	=83	=83	=83
1r	.	1c]	.	1e	Ky-	1g	Ky-
0F	Ky-	1r	.	2f\	-ri-	0a	-ri-
.	.	.	.	1d	-e	.	.
.	.	1r	.	.	.	.	.
.	.	.	.	2c\	.	.	.
=84	=84	=84	=84	=84	=84	=84	=84
1E	-ri-	1g	Ky-	0e	.	1b	-e
0C	-e	1g	-ri-	.	.	2cc\	e-
.	.	.	.	.	.	1ee	.
.	.	1e	-e	2.g\	e-	.	.
.	.	.	.	.	.	2dd\	.
.	.	.	.	4f\	.	.	.
=85	=85	=85	=85	=85	=85	=85	=85
1D	e-	1f	.	1d	.	2.b\	.
.	.	.	.	.	.	4a/	.
0C	-lei-	0g	.	1.e	-lei-	2cc\	.
.	.	.	.	.	.	2.cc\	-lei-
.	.	.	.	.	.	4b\	.
.	.	.	.	2c\	.	4a/	.
.	.	.	.	.	.	4g/	.
=86	=86	=86	=86	=86	=86	=86	=86
1C	-son,	1r	.	1e	-son,	1g	-son,
1BB	.	1r	.	1d	.	1r	.
[1C	Ky-	[1c	Ky-	2e\	Ky-	1g	Ky-
.	.	.	.	2f\	.	.	.
=87	=87	=87	=87	=87	=87	=87	=87
1C]	.	1c]	.	0.g	-ri-	1cc	.
0G	-ri-	1d	-ri-	.	.	1.b	-ri-
.	.	1e	.	.	.	.	.
.	.	.	.	.	.	2a/	.
=88	=88	=88	=88	=88	=88	=88	=88
1F	-e	1f	-e	0c	-e,	1.a	-e
0A	.	1e	.	.	.	.	.
.	.	.	.	.	.	2g/	e-
.	.	1c	e-	1r	.	2e/	.
.	.	.	.	.	.	2f/	.
=89	=89	=89	=89	=89	=89	=89	=89
1B	e-	1G	-lei-	0.r	.	1g	-lei-
1c	-lei-	1A	.	.	.	2e/	.
.	.	.	.	.	.	2c/	.
1G	.	1B	.	.	.	1d	.
=90	=90	=90	=90	=90	=90	=90	=90
[0.C	-son,	1c	-son,	1.G	Ky-	1e	-son,
.	.	0e	.	.	.	1c	.
.	.	.	.	1.c	.	.	.
.	.	.	.	.	.	1g	Ky-
=91	=91	=91	=91	=91	=91	=91	=91
0.C_	.	1c	.	1.G	-ri-	1e	-ri-
.	.	1g	Ky-	.	.	1c	-e
.	.	.	.	1.c	.	.	.
.	.	1e	-ri-	.	.	[1g	e-
=92	=92	=92	=92	=92	=92	=92	=92
0.C]	.	1c	-e,	1G	-e,	1g]	.
.	.	1r	.	1g	Ky-	2e/	-lei-
.	.	.	.	.	.	1c	.
.	.	1g	Ky-	1e	-ri-	.	.
.	.	.	.	.	.	[2g/	.
=93	=93	=93	=93	=93	=93	=93	=93
0.r	.	1e	-ri-	1c	-e	2g/]	.
.	.	.	.	.	.	2cc\	.
.	.	1g	-e-	1G	e-	1b	.
.	.	1f	-lei-	1d	-lei-	2a/	.
.	.	.	.	.	.	[2dd\	.
=94	=94	=94	=94	=94	=94	=94	=94
0.r	.	0d	.	0G	-son,	4dd\]	.
.	.	.	.	.	.	4cc\	.
.	.	.	.	.	.	2cc\	.
.	.	.	.	.	.	2.b\	.
.	.	.	.	.	.	4a/	.
.	.	[1c	-son,	1g	Ky-	1cc	-son,
.	.	.	x	.	.	.	.
=95	=95	=95	=95	=95	=95	=95	=95
1C	Ky-	1c]	.	1g	-ri-	1r	.
1.F	.	1r	.	1a	.	2.f/	Ky-
.	.	.	.	.	.	4g/	.
.	.	1d	e-	1f	.	2a/	.
2G\	-ri-	.	.	.	.	2b\	-ri-
=96	=96	=96	=96	=96	=96	=96	=96
2A\	-e	1c	-lei-	0e	-e	1.cc	-e
2B\	.	.	.	.	.	.	.
1c	.	0A	.	.	.	.	.
.	.	.	.	.	.	2b\	.
1F	e-	.	.	2c\	e-	1a	.
.	.	.	.	2d\	.	.	.
=97	=97	=97	=97	=97	=97	=97	=97
1G	-lei-	1B	.	1e	-lei-	1g	e-
0F	.	1c	.	1f	.	1a	-lei-
.	.	1A	.	2d\	.	1f	.
.	.	.	.	2c\	.	.	.
=98	=98	=98	=98	=98	=98	=98	=98
0C	-son,	1G	-son,	0e	-son,	1g	-son,
.	.	0c	.	.	.	2r	.
.	.	.	.	.	.	1a	e-
2F\	Ky-	.	.	[1c	.	.	.
2E\	.	.	.	.	.	2g/	.
=99	=99	=99	=99	=99	=99	=99	=99
1C	-ri-	1e	e-	1c]	.	1g	.
1.D	.	0d	-lei-	0A	.	2f/	-lei-
.	.	.	.	.	.	2g/	.
.	.	.	.	.	.	[1a	.
2E\	.	.	.	.	.	.	.
=100	=100	=100	=100	=100	=100	=100	=100
0.F	-e	[0.cl	-son.	1r	.	2a/]	.
.	.	.	x	.	.	2b\	.
.	.	.	.	[0A	e-	1cc	.
.	.	.	.	.	.	2.a/	.
.	.	.	.	.	.	4f/	.
=101	=101	=101	=101	=101	=101	=101	=101
2F\	e-	0.c_	.	0A]	.	2f/	.
2C/	.	.	.	.	.	2e/	.
1F	-lei-	.	.	.	.	2c/	.
.	.	.	.	.	.	1f	.
1C	.	.	.	1G	.	.	.
.	.	.	.	.	.	2e/	.
=102	=102	=102	=102	=102	=102	=102	=102
0.Fl	-son.	0.c]	.	1.A	-lei-	0.fl	-son.
.	.	.	.	2F/	.	.	.
.	.	.	.	1Fl	-son.	.	.
==	==	==	==	==	==	==	==
*-	*-	*-	*-	*-	*-	*-	*-
!!!RDF**kern: l=long note in original notation
!!!RDF**kern: i=editorial accidental
!!!ENC:	Jesse Rodin 8/28/2013
!!!END:	2013/11/21/
!!!EED:	Jesse Rodin
!!!EEV:	2013/11/21/
!!!ONB:	Translated from SCORE and edited on 2013/11/21/ by Craig Sapp
!!muse2ps: T^@{OPR}^u^@{ONM}{. }@{OTL}^C^@{COM}^i2I150v85,85,85,130c180
